img/svg/archive-ico-48.svg

<svg width="48" height="48" viewBox="0 0 48 48" fill="none" xmlns="http://www.w3.org/2000/svg">
<path d="M35.9844 27.3008C35.8874 27.3008 35.7939 27.3153 35.7051 27.3407C35.6162 27.3153 35.5228 27.3008 35.4258 27.3008H28.6211C28.293 27.3008 27.9853 27.4591 27.7947 27.7261L26.575 29.4336H21.2727L20.0529 27.7261C19.8623 27.4591 19.5543 27.3008 19.2264 27.3008H14.5547V22.1719C14.5547 21.6119 15.0103 21.1562 15.5703 21.1562H32.4297C32.9897 21.1562 33.4453 21.6119 33.4453 22.1719V23.2383C33.4453 23.7993 33.9 24.2539 34.4609 24.2539C35.0219 24.2539 35.4766 23.7993 35.4766 23.2383V22.1719C35.4766 21.2701 35.0824 20.4588 34.4578 19.9004C34.4592 19.879 34.4609 19.8578 34.4609 19.8359V18.1094C34.4609 17.209 34.0682 16.3991 33.4453 15.8409V14.0469C33.4453 12.3667 32.0786 11 30.3984 11H17.6016C15.9214 11 14.5547 12.3667 14.5547 14.0469V15.8409C13.9318 16.3991 13.5391 17.209 13.5391 18.1094V19.6328C13.5391 19.7171 13.5504 19.7984 13.5698 19.8768C12.9293 20.4356 12.5234 21.257 12.5234 22.1719V27.3008H12.4727C12.3939 27.3008 12.3177 27.3105 12.2441 27.3276C12.1705 27.3105 12.0944 27.3008 12.0156 27.3008C11.4547 27.3008 11 27.7554 11 28.3164V32.9375C11 35.1776 12.8224 37 15.0625 37H32.9375C35.1776 37 37 35.1776 37 32.9375V28.3164C37 27.7554 36.5453 27.3008 35.9844 27.3008ZM16.5859 14.0469C16.5859 13.4869 17.0416 13.0312 17.6016 13.0312H30.3984C30.9584 13.0312 31.4141 13.4869 31.4141 14.0469V15.0625H16.5859V14.0469ZM15.5703 18.1094C15.5703 17.5494 16.026 17.0938 16.5859 17.0938H31.4141C31.974 17.0938 32.4297 17.5494 32.4297 18.1094V19.125H15.5703V18.1094ZM32.9375 34.9688H15.0625C13.9425 34.9688 13.0312 34.0575 13.0312 32.9375V29.332H18.7039L19.9236 31.0396C20.1142 31.3065 20.4219 31.4648 20.75 31.4648H27.0977C27.4258 31.4648 27.7334 31.3065 27.924 31.0396L29.1438 29.332H34.9688V32.9375C34.9688 34.0575 34.0575 34.9688 32.9375 34.9688Z" fill="#E0E0E0"/>
</svg>

<svg width="48" height="48" fill="none" xmlns="http://www.w3.org/2000/svg"><path d="M35.984 27.3c-.097 0-.19.015-.279.04a1.014 1.014 0 00-.28-.04h-6.804c-.328 0-.636.16-.826.426l-1.22 1.708h-5.302l-1.22-1.708a1.016 1.016 0 00-.827-.425h-4.671v-5.13c0-.56.455-1.015 1.015-1.015h16.86c.56 0 1.015.456 1.015 1.016v1.066a1.016 1.016 0 102.032 0v-1.066a3.04 3.04 0 00-1.02-2.272c.002-.021.004-.042.004-.064v-1.727c0-.9-.393-1.71-1.016-2.268v-1.794A3.05 3.05 0 0030.398 11H17.602a3.05 3.05 0 00-3.047 3.047v1.794a3.039 3.039 0 00-1.016 2.268v1.524c0 .084.011.165.03.244a3.04 3.04 0 00-1.046 2.295V27.3h-.05c-.08 0-.155.01-.229.027a1.016 1.016 0 00-1.244.989v4.62A4.067 4.067 0 0015.063 37h17.874A4.067 4.067 0 0037 32.937v-4.62c0-.562-.455-1.016-1.016-1.016zM16.586 14.048c0-.56.456-1.016 1.016-1.016h12.796c.56 0 1.016.456 1.016 1.016v1.015H16.586v-1.015zM15.57 18.11c0-.56.456-1.015 1.016-1.015h14.828c.56 0 1.016.455 1.016 1.015v1.016H15.57V18.11zm17.367 16.86H15.064a2.034 2.034 0 01-2.032-2.032v-3.605h5.673l1.22 1.708c.19.267.498.425.826.425h6.348c.328 0 .635-.159.826-.425l1.22-1.708h5.825v3.605c0 1.12-.912 2.032-2.032 2.032z" fill="#E0E0E0"/></svg>
